X: 0
T: From Highest Heaven I Come To Tell
Z: Henry Higgs, Mus. Bac.
Z: Copyright © 2003 by Douglas D. Anderson
Z: Released To The Public Domain
L: 1/4
M: 4/4
Q: 1/4=120
V: P1 name="Staff"
%%MIDI program 1 19
K: C
[V: P1]  G | e B c3/ E/ | G3/ F/ E G | c A d G | A (B/A/) G A | A d G3/ G/ | c3/ d/ e e | f d B c | c B c|]
w: From high- est heaven I come to tell The glad- dest news that e'er be-_ fell; These tid- ings true to you I bring, And of them I will say and sing.

